!!!COM: Palestrina, Giovanni Perluigi da
!!!OPR: Missa De beata virgine (1570)
!!!OMD: Credo
!!!OTL: secundum Scripturas
**kern	**kern	**kern	**kern
*Itenor	*Icalto	*Icant	*Icant
!Tenor	!Altus	!Cantus 2	!Cantus 1
*clefGv2	*clefG2	*clefG2	*clefG2
*k[b-]	*k[b-]	*k[b-]	*k[b-]
*?:X	*?:X	*?:X	*?:X
*M4/2	*M4/2	*M4/2	*M4/2
=117	=117	=117	=117
1e	1g	1b	1ee
1d	1a	1dd	1ff
=118	=118	=118	=118
2c	2.cc	2g	2ee
2.f	.	2.a	2cc
.	4b	.	.
.	2a	.	2dd
4e	.	4b	.
2c	2g	2cc	[2ee
=119	=119	=119	=119
2d	2f	2a	4ee]
.	.	.	4dd
2G	2g	2b-	1dd
1A	1e	[1a	.
.	.	.	2cc#
=120	=120	=120	=120
2r	1d	1a]	1dd
2d	.	.	.
2e	1r	1g	1b
2g	.	.	.
=121	=121	=121	=121
2f	2r	2a	1cc
2e	1g	2cc	.
1d	.	2b	1dd
.	2f#	2a	.
=122	=122	=122	=122
1.G	1g	4g	1.b
.	.	4a	.
.	.	4b	.
.	.	4cc	.
.	2g	4dd	.
.	.	4ee	.
2A	2f	[2ff	2cc
=123	=123	=123	=123
1B-	1d	2ff]	1dd
.	.	4ee	.
.	.	4dd	.
[1A	2a	1cc#	1ee
.	2e	.	.
=124	=124	=124	=124
1A]	2e	1r	2r
.	2f	.	2a
1r	2g	1ee	2b
.	2a	.	2cc
=125	=125	=125	=125
0r	4d	1ff	1dd
.	4e	.	.
.	4f	.	.
.	4g	.	.
.	2a	2ee	2cc
.	2g#	2ee	2b
=126	=126	=126	=126
2r	1a	2.ee	1cc
2A	.	.	.
.	.	4cc	.
2B	2r	2dd	2b
2c	2e	[2ee	[2a
=127	=127	=127	=127
2d	2f	4ee]	2a]
.	.	4dd	.
2B-	2d	1dd	2g
1A	1e	.	2a
.	.	2cc#	2a
=128	=128	=128	=128
1G	1g	0dd	1b-
1d	4f	.	2a
.	4g	.	.
.	4a	.	[2dd
.	4f	.	.
=129	=129	=129	=129
2r	1g	1b	4dd]
.	.	.	4cc
2g	.	.	2b
2f	2r	1cc	2a
2e	2g	.	2g
=130	=130	=130	=130
1d	2g	1.dd	1a
.	2f#	.	.
2r	1g	.	1b
2g	.	2dd	.
=131	=131	=131	=131
2g	1d	1dd	2a
2f#	.	.	2a
2.g	2r	1dd	2.b
.	2g	.	.
8f	.	.	8a
8e	.	.	8g
=132	=132	=132	=132
1d	2g	2dd	1a
.	2f#	2dd	.
1G	[1g	1dd	1b
=133	=133	=133	=133
1c	2g]	1ee	2r
.	2g	.	1cc
1G	2g	[1dd	.
.	2g	.	[2b
=134	=134	=134	=134
1A	1e	2dd]	2b]
.	.	2cc	2a
1e	2r	1b	1g
.	[2e	.	.
=135	=135	=135	=135
1A	2e]	1cc	1a
.	2f	.	.
1e	2.g	2b	2r
.	.	2cc	2g
.	4e	.	.
=136	=136	=136	=136
2d	4f	1dd	1a
.	4g	.	.
2f	1a	.	.
1e	.	[1ee	1b
.	2g#	.	.
=137	=137	=137	=137
1A	2a	0ee]	2cc
.	2cc	.	2a
1r	2cc	.	2a
.	2b	.	2g
=138	=138	=138	=138
2r	2.a	1r	2.cc
2a	.	.	.
.	8g	.	8b
.	8f	.	8a
2a	2e	1ee	1b
2g	2e	.	.
=139	=139	=139	=139
2.f	2d	1ff	2dd
.	2.a	.	1cc
8e	.	.	.
8d	.	.	.
2c	.	2ee	.
.	4g	.	.
2e	[2g	2cc	2g
=140	=140	=140	=140
1d	2g]	1dd	1a
.	2f#	.	.
[1c	[1g	[1ee	[1cc
=141	=141	=141	=141
2c]	2g]	2ee]	2cc]
2G	2g	2dd	2b
[1G	[1g	[1dd	1b
=142	=142	=142	=142
1G]	1g]	1dd]	2r
.	.	.	1b
1r	1e	1g	.
.	.	.	2cc
=143	=143	=143	=143
0r	2f#	2a	1dd
.	1g	1b	.
.	.	.	1dd
.	4f#	4a	.
.	4e	4g	.
=144	=144	=144	=144
0r	2f#	2a	1dd
.	2g	2b	.
.	2e	2g	1cc
.	[2f	[2a	.
=145	=145	=145	=145
0r	2f]	2a]	1dd
.	2g	2b	.
.	1c	2cc	1ee
.	.	4g	.
.	.	4a	.
=146	=146	=146	=146
2r	2.g	4b	1dd
.	.	4cc	.
1B	.	1dd	.
.	8f	.	.
.	8e	.	.
.	2d	.	1r
2c	[2g	4cc	.
.	.	4b	.
=147	=147	=147	=147
1d	2g]	2.a	2r
.	4f	.	1a
.	4e	8b	.
.	.	8cc	.
2d	1f#	1dd	.
2d	.	.	2b
=148	=148	=148	=148
2.c	0g	1ee	1cc
4d	.	.	.
[1e	.	2r	1b
.	.	[2b	.
=149	=149	=149	=149
1e]	2r	2b]	1g
.	2e	2cc	.
1d	1f#	1dd	1a
=150	=150	=150	=150
2r	1g	2dd	1b
2B	.	2dd	.
2c	2g	1cc	2r
2e	2g	.	2g
=151	=151	=151	=151
1d	1f	1dd	2a
.	.	.	2b
2.c	1g	[1ee	[1cc
4B	.	.	.
=152	=152	=152	=152
0A	0a	2ee]	2cc]
.	.	2dd	2dd
.	.	1cc	1ee
=153	=153	=153	=153
0e	0g#	0b	0ee
*-	*-	*-	*-
!!!CDT: 1525/^1526/-1594/2/2
!!!OCY: Italia
!!!AGN: Mass (Paraphrase)
!!!AST: renaissance, vocal
!!!ASW: Gregorian Mass
!!!PWK: Masses, Book 3
!!!RNB: Cadence finals: G,D,C,E,F
!!!YOR: Le Opere Complete, v. 6, p. 175
!!!YOO: Rome, Italy: Fratelli Scalera
!!!END: 1992//
!!!EED: John Miller
!!!YEC: Copyright 2000, John Miller
!!!YEN: United States of America
!!!YEM: Rights to all derivative electronic formats reserved.
!!!YEM: Refer to licensing agreement for further details.
!!!YEM: This file must be accompanied by the licensing agreement.
!!!YEM: A copy of the licensing agreement may be found at http://www.music-cog.ohio-state.edu/HumdrumDatabases/Palestrina/license.txt
!!!EMD: converted to Humdrum by Bret Aarden
